images/not-just-course.svg

<svg width="48" height="48" viewBox="0 0 48 48" fill="none" xmlns="http://www.w3.org/2000/svg">
<path d="M42.9231 2.30859H5.07694C2.27747 2.30859 0 4.61846 0 7.45755V28.5213V31.798C0 34.6371 2.27747 36.9469 5.07694 36.9469H17.3356L15.8587 44.4363H11.0769C10.5671 44.4363 10.1539 44.8554 10.1539 45.3724C10.1539 45.8895 10.5671 46.3086 11.0769 46.3086H36.9231C37.4329 46.3086 37.8461 45.8895 37.8461 45.3724C37.8461 44.8554 37.4329 44.4363 36.9231 44.4363H32.1413L30.6644 36.9469H42.9231C45.7224 36.9469 48 34.6372 48 31.798V28.5213V7.45755C48 4.61846 45.7225 2.30859 42.9231 2.30859ZM17.7413 44.4363L19.2183 36.9469H28.7817L30.2587 44.4363H17.7413ZM46.1539 31.798C46.1539 33.6047 44.7046 35.0746 42.9231 35.0746H5.07694C3.2955 35.0746 1.84612 33.6048 1.84612 31.798V29.4576H46.1538L46.1539 31.798ZM46.1539 27.5853H1.84612V25.713H7.38459C7.89441 25.713 8.30766 25.2939 8.30766 24.7768C8.30766 24.2598 7.89441 23.8407 7.38459 23.8407H1.84612V7.45755C1.84612 5.65084 3.29541 4.18091 5.07694 4.18091H42.9231C44.7045 4.18091 46.1539 5.65074 46.1539 7.45755V27.5853Z" fill="#4E6575"/>
<path d="M43 6.05469H5V21.2675H43V6.05469Z" fill="#EFF2F3"/>
<path d="M23.9999 30C22.982 30 22.1538 30.8282 22.1538 31.8461C22.1538 32.8641 22.982 33.6923 23.9999 33.6923C25.0179 33.6923 25.8461 32.8641 25.8461 31.8461C25.8461 30.8282 25.0179 30 23.9999 30Z" fill="#4E6575"/>
<path d="M31.5575 19.9871L29.5994 18.0289L31.2312 16.3972C31.4685 16.1599 31.5583 15.8126 31.4657 15.49C31.3732 15.1675 31.113 14.9206 30.786 14.845L22.3006 12.8869C21.9906 12.8155 21.6655 12.9085 21.4403 13.1336C21.2153 13.3587 21.122 13.6837 21.1936 13.9939L23.1519 22.4792C23.2274 22.8061 23.4743 23.0664 23.7969 23.1589C24.1196 23.2514 24.4667 23.1616 24.7041 22.9244L26.3358 21.2926L28.294 23.2507C28.4743 23.431 28.7105 23.5211 28.9467 23.5211C29.1828 23.5211 29.4192 23.431 29.5994 23.2507L31.5575 21.2926C31.9179 20.9321 31.9179 20.3477 31.5575 19.9871ZM28.9467 21.2926L26.9885 19.3344C26.8082 19.1541 26.572 19.064 26.3358 19.064C26.0997 19.064 25.8633 19.1541 25.6831 19.3344L24.5763 20.4413L23.3248 15.018L28.7481 16.2694L27.6412 17.3763C27.2807 17.7367 27.2807 18.3213 27.6412 18.6817L29.5994 20.6399L28.9467 21.2926Z" fill="#4E6575"/>
<path d="M20.2005 10.5879L19.2775 9.66488C18.917 9.30441 18.3325 9.30441 17.972 9.66488C17.6115 10.0254 17.6115 10.6098 17.972 10.9704L18.8952 11.8934C19.0754 12.0737 19.3117 12.1638 19.5479 12.1638C19.784 12.1638 20.0204 12.0737 20.2005 11.8934C20.561 11.533 20.561 10.9485 20.2005 10.5879Z" fill="#4E6575"/>
<path d="M18.4008 13.0859H17.0954C16.5856 13.0859 16.1724 13.4992 16.1724 14.009C16.1724 14.5188 16.5856 14.9321 17.0954 14.9321H18.4008C18.9106 14.9321 19.3239 14.5188 19.3239 14.009C19.3239 13.4992 18.9106 13.0859 18.4008 13.0859Z" fill="#4E6575"/>
<path d="M20.2004 16.1258C19.8401 15.7654 19.2556 15.7654 18.8951 16.1258L17.972 17.0489C17.6115 17.4094 17.6115 17.9939 17.972 18.3544C18.1523 18.5346 18.3885 18.6247 18.6247 18.6247C18.8609 18.6247 19.0972 18.5346 19.2774 18.3544L20.2004 17.4313C20.5609 17.0709 20.5609 16.4864 20.2004 16.1258Z" fill="#4E6575"/>
<path d="M26.662 9.66488C26.3015 9.30441 25.7171 9.30441 25.3565 9.66488L24.4334 10.5879C24.073 10.9484 24.073 11.5329 24.4334 11.8934C24.6137 12.0737 24.85 12.1638 25.0862 12.1638C25.3225 12.1638 25.5587 12.0737 25.7389 11.8934L26.662 10.9704C27.0224 10.61 27.0224 10.0254 26.662 9.66488Z" fill="#4E6575"/>
<path d="M22.3171 7.86328C21.8073 7.86328 21.394 8.27653 21.394 8.78634V10.0917C21.394 10.6015 21.8073 11.0148 22.3171 11.0148C22.8269 11.0148 23.2402 10.6015 23.2402 10.0917V8.78634C23.2402 8.27653 22.8269 7.86328 22.3171 7.86328Z" fill="#4E6575"/>
<path d="M11.0586 24.2817C11.0476 24.2227 11.0291 24.1646 11.006 24.1082C10.983 24.0528 10.9544 23.9993 10.9211 23.9494C10.8879 23.8986 10.8491 23.8515 10.8066 23.8091C10.7641 23.7666 10.7171 23.7279 10.6663 23.6946C10.6164 23.6614 10.5629 23.6327 10.5066 23.6097C10.4512 23.5866 10.3931 23.5681 10.334 23.5571C10.215 23.5331 10.0931 23.5331 9.97402 23.5571C9.91496 23.5681 9.85683 23.5866 9.80143 23.6097C9.74508 23.6327 9.69155 23.6613 9.64177 23.6946C9.59096 23.7278 9.54389 23.7666 9.50143 23.8091C9.45896 23.8515 9.42024 23.8986 9.38696 23.9494C9.35377 23.9993 9.32508 24.0528 9.30202 24.1082C9.27896 24.1646 9.26049 24.2227 9.24943 24.2817C9.23743 24.3408 9.23096 24.4018 9.23096 24.4618C9.23096 24.5218 9.23743 24.5827 9.24943 24.6417C9.26049 24.7008 9.27896 24.7589 9.30202 24.8143C9.32508 24.8707 9.35368 24.9242 9.38696 24.974C9.42014 25.0248 9.45896 25.0719 9.50143 25.1143C9.54389 25.1568 9.59096 25.1955 9.64177 25.2288C9.69164 25.262 9.74518 25.2907 9.80143 25.3137C9.85683 25.3368 9.91496 25.3553 9.97402 25.3673C10.0331 25.3793 10.094 25.3848 10.154 25.3848C10.214 25.3848 10.275 25.3793 10.334 25.3673C10.3931 25.3553 10.4512 25.3368 10.5066 25.3137C10.563 25.2907 10.6165 25.2621 10.6663 25.2288C10.7171 25.1956 10.7641 25.1568 10.8066 25.1143C10.8491 25.0719 10.8878 25.0248 10.9211 24.974C10.9543 24.9241 10.983 24.8706 11.006 24.8143C11.0291 24.7589 11.0476 24.7008 11.0586 24.6417C11.0706 24.5827 11.0771 24.5218 11.0771 24.4618C11.0771 24.4018 11.0706 24.3408 11.0586 24.2817Z" fill="#4E6575"/>
</svg>

<svg xmlns="http://www.w3.org/2000/svg" width="48" height="48" fill="none"><path fill="#4E6575" d="M42.923 2.309H5.077C2.277 2.309 0 4.619 0 7.458v24.34c0 2.84 2.277 5.149 5.077 5.149h12.259l-1.477 7.49h-4.782a.93.93 0 0 0-.923.935.93.93 0 0 0 .923.937h25.846a.93.93 0 0 0 .923-.937.93.93 0 0 0-.923-.936h-4.782l-1.477-7.49h12.26c2.798 0 5.076-2.309 5.076-5.148V7.458c0-2.84-2.278-5.15-5.077-5.15ZM17.741 44.436l1.477-7.49h9.564l1.477 7.49H17.74Zm28.413-12.638c0 1.807-1.45 3.277-3.23 3.277H5.076c-1.781 0-3.23-1.47-3.23-3.277v-2.34h44.307v2.34Zm0-4.213H1.846v-1.872h5.539a.93.93 0 0 0 .923-.936.93.93 0 0 0-.923-.936H1.846V7.458c0-1.807 1.45-3.277 3.23-3.277h37.847c1.782 0 3.23 1.47 3.23 3.277v20.127Z"/><path fill="#EFF2F3" d="M43 6.055H5v15.212h38V6.055Z"/><path fill="#4E6575" d="M24 30a1.848 1.848 0 0 0-1.846 1.846c0 1.018.828 1.846 1.846 1.846a1.848 1.848 0 0 0 1.846-1.846A1.848 1.848 0 0 0 24 30ZM31.558 19.987l-1.959-1.958 1.632-1.632a.923.923 0 0 0-.445-1.552l-8.485-1.958a.924.924 0 0 0-1.107 1.107l1.958 8.485a.923.923 0 0 0 1.552.445l1.632-1.631 1.958 1.958a.92.92 0 0 0 1.305 0l1.959-1.958a.923.923 0 0 0 0-1.306Zm-2.611 1.306-1.959-1.959a.92.92 0 0 0-1.305 0l-1.107 1.107-1.251-5.423 5.423 1.251-1.107 1.107a.923.923 0 0 0 0 1.306L29.6 20.64l-.652.653ZM20.2 10.588l-.922-.923a.923.923 0 0 0-1.306 1.305l.923.923a.92.92 0 0 0 1.306 0 .923.923 0 0 0 0-1.305ZM18.4 13.086h-1.305a.923.923 0 0 0 0 1.846h1.306a.923.923 0 0 0 0-1.846ZM20.2 16.126a.923.923 0 0 0-1.305 0l-.923.923a.923.923 0 0 0 1.305 1.305l.923-.923a.923.923 0 0 0 0-1.305ZM26.662 9.665a.923.923 0 0 0-1.305 0l-.924.923a.923.923 0 0 0 1.306 1.305l.923-.923a.923.923 0 0 0 0-1.305ZM22.317 7.863a.923.923 0 0 0-.923.923v1.306a.923.923 0 0 0 1.846 0V8.786a.923.923 0 0 0-.923-.923ZM11.059 24.282a.89.89 0 0 0-.138-.333.876.876 0 0 0-.255-.254.91.91 0 0 0-.332-.138.909.909 0 0 0-.692.138.878.878 0 0 0-.255.254.94.94 0 0 0-.156.513.908.908 0 0 0 .071.352.902.902 0 0 0 .34.415.91.91 0 0 0 .332.138.908.908 0 0 0 .533-.053.897.897 0 0 0 .414-.34.91.91 0 0 0 .138-.332.908.908 0 0 0 0-.36Z"/></svg>
